tools/download-figma-icons/icons/outlined-large/renewable-energy.svg

<svg width="64" height="64" viewBox="0 0 64 64" fill="none" xmlns="http://www.w3.org/2000/svg">
<path fill-rule="evenodd" clip-rule="evenodd" d="M38.2096 39.9997H43.1436L42.2866 43.9996H37.3587L38.2096 39.9997ZM39.7096 32.9997H44.6436L43.7866 36.9997H38.8586L39.7096 32.9997ZM59.7885 36.9997H54.8545L55.7115 32.9997H60.6395L59.7885 36.9997ZM58.2885 43.9996H53.3555L54.2115 39.9997H59.1395L58.2885 43.9996ZM52.6435 32.9997L51.7865 36.9997H46.8556L47.7116 32.9997H52.6435ZM48.4966 43.9996H45.3556L46.2116 39.9997H51.1435L50.2865 43.9996H48.4986H48.4966ZM15.0198 19.6998C15.0098 19.6698 15.0098 19.6398 15.0098 19.5998C14.9998 19.5698 14.9998 19.5398 14.9998 19.4998V19.4598C14.9998 19.3698 15.0098 19.2798 15.0298 19.1998C15.1088 18.8098 15.3398 18.4698 15.6598 18.2598C15.7398 18.1998 15.8198 18.1598 15.9098 18.1198H15.9198C16.0098 18.0798 16.0998 18.0498 16.1998 18.0298C16.2898 18.0098 16.3898 17.9998 16.4898 17.9998H16.5198C16.5998 17.9998 16.6698 18.0098 16.7498 18.0298C16.8698 18.0398 16.9798 18.0698 17.0798 18.1198C17.1698 18.1598 17.2598 18.1998 17.3398 18.2598C17.4098 18.2998 17.4798 18.3598 17.5398 18.4198C17.5436 18.4237 17.5475 18.426 17.5507 18.428C17.556 18.4313 17.5598 18.4337 17.5598 18.4398C17.6298 18.5098 17.6888 18.5798 17.7398 18.6598C17.7998 18.7398 17.8398 18.8198 17.8798 18.9098V18.9198C17.9198 19.0098 17.9498 19.0998 17.9698 19.1998C17.9898 19.2798 17.9998 19.3698 17.9998 19.4498V19.4698V19.5198C17.9998 19.5998 17.9898 19.6698 17.9698 19.7498C17.9798 19.7598 17.9698 19.7698 17.9698 19.7698C17.9698 19.7998 17.9598 19.8298 17.9498 19.8498C17.7798 20.4998 17.1998 20.9698 16.4998 20.9698C16.1888 20.9698 15.8988 20.8798 15.6598 20.7098C15.5798 20.6598 15.5098 20.5998 15.4388 20.5298C15.4298 20.5298 15.4198 20.5198 15.4198 20.5098C15.3588 20.4498 15.2998 20.3798 15.2598 20.3098C15.1998 20.2298 15.1598 20.1398 15.1198 20.0498C15.1134 20.044 15.1107 20.0416 15.1096 20.0385C15.1088 20.0364 15.1088 20.034 15.1088 20.0298C15.0798 19.9698 15.0598 19.9098 15.0498 19.8398C15.0442 19.8286 15.0418 19.8174 15.0389 19.8044C15.0367 19.7942 15.0342 19.783 15.0298 19.7698C15.0298 19.7608 15.0278 19.7519 15.0256 19.742C15.0229 19.7298 15.0198 19.7163 15.0198 19.6998ZM59.4985 46.9996C60.2085 46.9996 60.8185 46.5096 60.9695 45.8096L63.9694 31.8097C64.0594 31.3697 63.9484 30.9097 63.6684 30.5597C63.3784 30.2097 62.9484 29.9997 62.4984 29.9997H38.4996C37.7887 29.9997 37.1797 30.4897 37.0287 31.1897L34.0287 45.1896C33.9387 45.6296 34.0497 46.0896 34.3297 46.4396C34.6187 46.7896 35.0497 46.9996 35.4997 46.9996H47.0016L47.0116 53.1575C45.8506 52.5425 44.4166 51.9996 42.1376 51.9996C39.1886 51.9996 37.6507 52.9065 36.2957 53.7075C35.0737 54.4295 34.1087 54.9995 31.9797 54.9995C29.8492 54.9995 28.8842 54.4298 27.6616 53.7081L27.6607 53.7075C26.3047 52.9065 24.7678 51.9996 21.8168 51.9996C20.1748 51.9996 18.9788 52.2846 17.9998 52.6735V23.7398C18.5098 23.5598 18.9698 23.2898 19.3798 22.9598L30.7297 29.7897C30.9697 29.9297 31.2387 29.9997 31.4997 29.9997C32.0097 29.9997 32.4997 29.7397 32.7897 29.2697C33.2097 28.5598 32.9797 27.6398 32.2697 27.2098L20.9098 20.3798C20.9698 20.0998 20.9998 19.7998 20.9998 19.4998C20.9998 17.5498 19.7498 15.8799 17.9998 15.2599V1.49999C17.9998 0.669994 17.3298 0 16.4998 0C15.6698 0 14.9998 0.669994 14.9998 1.49999V15.2599C13.2499 15.8799 11.9999 17.5498 11.9999 19.4998C11.9999 19.8098 12.0299 20.1098 12.0899 20.3898V20.3998L0.729968 27.2098C0.0199737 27.6398 -0.210024 28.5598 0.209972 29.2697C0.49997 29.7397 0.989965 29.9997 1.49996 29.9997C1.75996 29.9997 2.02996 29.9297 2.26995 29.7897L13.6399 22.9698C14.0399 23.2998 14.4998 23.5698 14.9998 23.7398V54.2555C14.1379 54.6965 13.2059 54.9995 11.6599 54.9995C9.51789 54.9995 8.4869 54.3955 7.29391 53.6955C5.93792 52.9005 4.39894 51.9996 1.50396 51.9996C0.675968 51.9996 0.00397378 52.6715 0.00397378 53.4995C0.00397378 54.3275 0.675968 54.9995 1.50396 54.9995C3.58456 54.9995 4.55158 55.5663 5.77625 56.2841L5.77692 56.2845C7.14791 57.0885 8.7029 57.9995 11.6599 57.9995C14.6088 57.9995 16.1458 57.0925 17.5008 56.2915C18.7228 55.5695 19.6878 54.9995 21.8168 54.9995C23.9472 54.9995 24.9123 55.5692 26.1348 56.291L26.1357 56.2915C27.4917 57.0925 29.0287 57.9995 31.9797 57.9995C34.9287 57.9995 36.4657 57.0925 37.8206 56.2915C39.0426 55.5695 40.0076 54.9995 42.1376 54.9995C44.2671 54.9995 45.2321 55.5692 46.4547 56.291L46.4556 56.2915C47.8126 57.0925 49.3506 57.9995 52.3015 57.9995C55.2525 57.9995 56.7905 57.0925 58.1465 56.2915C59.3695 55.5695 60.3355 54.9995 62.4664 54.9995C63.2944 54.9995 63.9664 54.3275 63.9664 53.4995C63.9664 52.6715 63.2944 51.9996 62.4664 51.9996C59.5165 51.9996 57.9785 52.9065 56.6215 53.7075L56.6206 53.7081C55.398 54.4298 54.433 54.9995 52.3015 54.9995C51.3455 54.9995 50.6295 54.8805 50.0135 54.6875L50.0015 46.9996H59.4985ZM62.4662 57.9995C59.5163 57.9995 57.9783 58.9065 56.6213 59.7075C55.3993 60.4295 54.4333 60.9995 52.3013 60.9995C50.1693 60.9995 49.2034 60.4295 47.9814 59.7075C46.6244 58.9065 45.0864 57.9995 42.1374 57.9995C39.1884 57.9995 37.6514 58.9065 36.2955 59.7075L36.2942 59.7082C35.0728 60.4299 34.1087 60.9995 31.9795 60.9995C29.849 60.9995 28.884 60.4298 27.6614 59.708L27.6605 59.7075C26.3045 58.9065 24.7676 57.9995 21.8176 57.9995C18.8676 57.9995 17.3306 58.9075 15.9756 59.7085L15.9738 59.7096C14.7527 60.4301 13.7876 60.9995 11.6597 60.9995C9.51794 60.9995 8.48794 60.3956 7.29413 59.6957L7.29371 59.6955C5.93772 58.9005 4.39974 57.9995 1.50376 57.9995C0.675768 57.9995 0.0037738 58.6715 0.0037738 59.4995C0.0037738 60.3275 0.675768 60.9995 1.50376 60.9995C3.58356 60.9995 4.55064 61.5658 5.77563 62.2832L5.77566 62.2833L5.77772 62.2845C7.14871 63.0885 8.7027 63.9995 11.6597 63.9995C14.6096 63.9995 16.1456 63.0925 17.5006 62.2915C18.7226 61.5695 19.6876 60.9995 21.8176 60.9995C23.947 60.9995 24.9121 61.5692 26.1346 62.2909L26.1356 62.2915C27.4915 63.0925 29.0285 63.9995 31.9795 63.9995C34.9285 63.9995 36.4655 63.0925 37.8204 62.2915C39.0424 61.5695 40.0074 60.9995 42.1374 60.9995C44.2674 60.9995 45.2334 61.5695 46.4554 62.2915C47.8124 63.0925 49.3503 63.9995 52.3013 63.9995C55.2523 63.9995 56.7903 63.0925 58.1473 62.2915C59.3693 61.5695 60.3353 60.9995 62.4662 60.9995C63.2942 60.9995 63.9662 60.3275 63.9662 59.4995C63.9662 58.6715 63.2942 57.9995 62.4662 57.9995ZM53.9985 12.4999C53.9985 11.1199 52.8795 9.99991 51.4985 9.99991C50.1185 9.99991 48.9986 11.1199 48.9986 12.4999C48.9986 13.8799 50.1185 14.9999 51.4985 14.9999C52.8795 14.9999 53.9985 13.8799 53.9985 12.4999ZM56.9985 12.4999C56.9985 15.5299 54.5285 17.9998 51.4985 17.9998C48.4696 17.9998 45.9986 15.5299 45.9986 12.4999C45.9986 9.46992 48.4696 6.99994 51.4985 6.99994C54.5285 6.99994 56.9985 9.46992 56.9985 12.4999ZM51.4985 4.99996C52.3265 4.99996 52.9985 4.32796 52.9985 3.49997V1.49999C52.9985 0.671994 52.3265 0 51.4985 0C50.6705 0 49.9985 0.671994 49.9985 1.49999V3.49997C49.9985 4.32796 50.6705 4.99996 51.4985 4.99996ZM45.1348 7.63523C44.7508 7.63523 44.3668 7.48924 44.0738 7.19624L42.6608 5.78225C42.0748 5.19626 42.0748 4.24726 42.6608 3.66127C43.2458 3.07527 44.1948 3.07527 44.7808 3.66127L46.1948 5.07526C46.7808 5.66125 46.7808 6.61024 46.1948 7.19624C45.9018 7.48924 45.5178 7.63523 45.1348 7.63523ZM40.4996 13.9999H42.4996C43.3266 13.9999 43.9986 13.3279 43.9986 12.4999C43.9986 11.6719 43.3266 10.9999 42.4996 10.9999H40.4996C39.6716 10.9999 38.9996 11.6719 38.9996 12.4999C38.9996 13.3279 39.6716 13.9999 40.4996 13.9999ZM42.6608 19.2175L44.0738 17.8035C44.6598 17.2176 45.6088 17.2176 46.1948 17.8035C46.7808 18.3895 46.7808 19.3385 46.1948 19.9245L44.7808 21.3385C44.4878 21.6315 44.1038 21.7785 43.7198 21.7785C43.3368 21.7785 42.9528 21.6315 42.6608 21.3385C42.0748 20.7525 42.0748 19.8035 42.6608 19.2175ZM49.9985 21.4998V23.4998C49.9985 24.3278 50.6705 24.9998 51.4985 24.9998C52.3265 24.9998 52.9985 24.3278 52.9985 23.4998V21.4998C52.9985 20.6718 52.3265 19.9998 51.4985 19.9998C50.6705 19.9998 49.9985 20.6718 49.9985 21.4998ZM56.8023 17.8035C57.3883 17.2176 58.3373 17.2176 58.9233 17.8035L60.3373 19.2175C60.9233 19.8035 60.9233 20.7525 60.3373 21.3385C60.0443 21.6315 59.6603 21.7785 59.2773 21.7785C58.8933 21.7785 58.5093 21.6315 58.2163 21.3385L56.8023 19.9245C56.2163 19.3385 56.2163 18.3895 56.8023 17.8035ZM58.9985 12.4999C58.9985 13.3279 59.6705 13.9999 60.4985 13.9999H62.4984C63.3264 13.9999 63.9984 13.3279 63.9984 12.4999C63.9984 11.6719 63.3264 10.9999 62.4984 10.9999H60.4985C59.6705 10.9999 58.9985 11.6719 58.9985 12.4999ZM58.9238 7.19664C58.6308 7.48964 58.2468 7.63563 57.8628 7.63563C57.4788 7.63563 57.0948 7.48964 56.8018 7.19664C56.2168 6.61064 56.2168 5.66065 56.8018 5.07466L58.2168 3.66067C58.8018 3.07467 59.7518 3.07467 60.3378 3.66067C60.9238 4.24666 60.9238 5.19666 60.3378 5.78165L58.9238 7.19664Z" fill="black"/>
</svg>

<svg width="64" height="64" viewBox="0 0 64 64" fill="none" xmlns="http://www.w3.org/2000/svg"><path fill-rule="evenodd" clip-rule="evenodd" d="M38.21 40h4.934l-.857 4h-4.928l.85-4Zm1.5-7h4.934l-.857 4h-4.928l.85-4Zm20.078 4h-4.933l.857-4h4.927l-.85 4Zm-1.5 7h-4.932l.855-4h4.928l-.85 4Zm-5.644-11-.858 4h-4.93l.856-4h4.931Zm-4.147 11h-3.141l.856-4h4.931l-.857 4h-1.789ZM15.02 19.7c-.01-.03-.01-.06-.01-.1-.01-.03-.01-.06-.01-.1v-.04c0-.09.01-.18.03-.26.079-.39.31-.73.63-.94.08-.06.16-.1.25-.14h.01a1.358 1.358 0 0 1 .57-.12h.03c.08 0 .15.01.23.03.12.01.23.04.33.09.09.04.18.08.26.14.07.04.14.1.2.16l.01.008c.006.003.01.006.01.012.07.07.129.14.18.22.06.08.1.16.14.25v.01c.04.09.07.18.09.28.02.08.03.17.03.25v.07c0 .08-.01.15-.03.23.01.01 0 .02 0 .02 0 .03-.01.06-.02.08-.17.65-.75 1.12-1.45 1.12-.311 0-.601-.09-.84-.26-.08-.05-.15-.11-.221-.18-.01 0-.02-.01-.02-.02a.97.97 0 0 1-.16-.2c-.06-.08-.1-.17-.14-.26-.006-.006-.008-.008-.01-.012v-.008a.629.629 0 0 1-.06-.19c-.005-.011-.007-.023-.01-.036a.311.311 0 0 0-.01-.034.133.133 0 0 0-.003-.028.17.17 0 0 1-.006-.042ZM59.498 47a1.5 1.5 0 0 0 1.471-1.19l3-14c.09-.44-.02-.9-.3-1.25a1.53 1.53 0 0 0-1.17-.56h-24a1.5 1.5 0 0 0-1.47 1.19l-3 14c-.09.44.02.9.3 1.25.29.35.72.56 1.17.56h11.503l.01 6.157C45.85 52.544 44.417 52 42.138 52c-2.95 0-4.487.907-5.842 1.708-1.222.721-2.187 1.291-4.316 1.291-2.13 0-3.096-.57-4.318-1.29l-.001-.002c-1.356-.8-2.893-1.707-5.844-1.707-1.642 0-2.838.285-3.817.673V23.74c.51-.18.97-.45 1.38-.78l11.35 6.83a1.512 1.512 0 0 0 2.06-.52c.42-.71.19-1.63-.52-2.06l-11.36-6.83c.06-.28.09-.58.09-.88 0-1.95-1.25-3.62-3-4.24V1.5c0-.83-.67-1.5-1.5-1.5S15 .67 15 1.5v13.76a4.505 4.505 0 0 0-2.91 5.13v.01L.73 27.21a1.51 1.51 0 0 0-.52 2.06 1.512 1.512 0 0 0 2.06.52l11.37-6.82c.4.33.86.6 1.36.77v30.515c-.862.441-1.794.744-3.34.744-2.142 0-3.173-.604-4.366-1.303C5.938 52.9 4.399 52 1.504 52a1.5 1.5 0 0 0 0 3c2.08 0 3.048.566 4.272 1.284C7.149 57.09 8.704 58 11.66 58c2.949 0 4.486-.907 5.84-1.708C18.724 55.57 19.689 55 21.818 55c2.13 0 3.095.57 4.318 1.291C27.493 57.093 29.03 58 31.98 58c2.949 0 4.486-.907 5.84-1.709C39.044 55.57 40.009 55 42.139 55s3.094.57 4.317 1.291c1.358.802 2.896 1.709 5.846 1.709 2.951 0 4.49-.907 5.846-1.709C59.37 55.57 60.336 55 62.467 55a1.5 1.5 0 0 0 0-3c-2.95 0-4.489.907-5.846 1.708C55.398 54.43 54.433 55 52.3 55c-.956 0-1.672-.119-2.288-.312L50.002 47h9.496Zm2.968 11c-2.95 0-4.488.907-5.845 1.708-1.222.721-2.188 1.291-4.32 1.291s-3.098-.57-4.32-1.291c-1.357-.801-2.895-1.709-5.844-1.709-2.949 0-4.486.907-5.842 1.709C35.072 60.43 34.108 61 31.978 61s-3.095-.57-4.318-1.291C26.303 58.908 24.767 58 21.817 58s-4.487.908-5.842 1.71h-.002c-1.22.72-2.185 1.29-4.313 1.29-2.142 0-3.172-.603-4.366-1.303C5.938 58.902 4.4 58 1.504 58a1.5 1.5 0 0 0 0 3c2.08 0 3.047.567 4.272 1.284l.002.002C7.148 63.089 8.703 64 11.66 64c2.95 0 4.486-.907 5.84-1.709C18.724 61.57 19.689 61 21.819 61c2.129 0 3.094.57 4.317 1.29v.002c1.356.8 2.893 1.707 5.845 1.707 2.948 0 4.485-.907 5.84-1.708C39.042 61.57 40.007 61 42.137 61s3.096.57 4.318 1.291C47.812 63.093 49.35 64 52.301 64s4.49-.907 5.846-1.709C59.37 61.57 60.335 61 62.467 61a1.5 1.5 0 0 0 0-3Zm-8.468-45.5a2.5 2.5 0 1 0-5 0 2.5 2.5 0 0 0 5 0Zm3 0c0 3.03-2.47 5.5-5.5 5.5a5.51 5.51 0 0 1-5.5-5.5 5.51 5.51 0 0 1 5.5-5.5c3.03 0 5.5 2.47 5.5 5.5Zm-5.5-7.5a1.5 1.5 0 0 0 1.5-1.5v-2a1.5 1.5 0 0 0-3 0v2a1.5 1.5 0 0 0 1.5 1.5Zm-6.363 2.635c-.384 0-.768-.146-1.061-.439L42.66 5.782a1.5 1.5 0 1 1 2.12-2.12l1.414 1.413a1.5 1.5 0 0 1-1.06 2.56ZM40.5 14h2a1.5 1.5 0 0 0 0-3h-2a1.5 1.5 0 0 0 0 3Zm2.16 5.218 1.414-1.415a1.5 1.5 0 1 1 2.12 2.121l-1.413 1.415a1.496 1.496 0 0 1-2.12 0 1.5 1.5 0 0 1 0-2.121ZM50 21.5v2a1.5 1.5 0 0 0 3 0v-2a1.5 1.5 0 0 0-3 0Zm6.803-3.697a1.5 1.5 0 0 1 2.121 0l1.414 1.415a1.5 1.5 0 1 1-2.12 2.12l-1.415-1.414a1.5 1.5 0 0 1 0-2.12ZM59 12.5a1.5 1.5 0 0 0 1.5 1.5h2a1.5 1.5 0 0 0 0-3h-2a1.5 1.5 0 0 0-1.5 1.5Zm-.075-5.303a1.495 1.495 0 0 1-1.061.439 1.502 1.502 0 0 1-1.061-2.561l1.415-1.414a1.5 1.5 0 1 1 2.12 2.12l-1.413 1.416Z" fill="currentColor"/></svg>
